svgs/sharp-regular/face-smirking.svg

<svg xmlns="http://www.w3.org/2000/svg" viewBox="0 0 512 512"><!--! Font Awesome Pro 6.6.0 by @fontawesome - https://fontawesome.com License - https://fontawesome.com/license (Commercial License) Copyright 2024 Fonticons, Inc. --><path d="M464 256A208 208 0 1 0 48 256a208 208 0 1 0 416 0zM0 256a256 256 0 1 1 512 0A256 256 0 1 1 0 256zm382.3 88.9l-1.9 4.8c-12.2 30.4-41.6 50.3-74.3 50.3L184 400l-24 0 0-48 24 0 122.1 0c13.1 0 24.9-8 29.7-20.1l1.9-4.8 8.9-22.3 44.6 17.8-8.9 22.3zM208 224c0 17.7-14.3 32-32 32s-32-14.3-32-32l-32 0-16 0 0-32 16 0 64 0c17.7 0 32 14.3 32 32zm192 0c0 17.7-14.3 32-32 32s-32-14.3-32-32l-32 0-16 0 0-32 16 0 64 0c17.7 0 32 14.3 32 32z"/></svg>

<svg xmlns="http://www.w3.org/2000/svg" viewBox="0 0 512 512"><!--! Font Awesome Pro 6.4.0 by @fontawesome - https://fontawesome.com License - https://fontawesome.com/license (Commercial License) Copyright 2023 Fonticons, Inc. --><path d="M464 256A208 208 0 1 0 48 256a208 208 0 1 0 416 0zM0 256a256 256 0 1 1 512 0A256 256 0 1 1 0 256zm382.3 88.9l-1.9 4.8c-12.2 30.4-41.6 50.3-74.3 50.3H184 160V352h24H306.1c13.1 0 24.9-8 29.7-20.1l1.9-4.8 8.9-22.3 44.6 17.8-8.9 22.3zM208 224c0 17.7-14.3 32-32 32s-32-14.3-32-32H112 96V192h16 64c17.7 0 32 14.3 32 32zm192 0c0 17.7-14.3 32-32 32s-32-14.3-32-32H304 288V192h16 64c17.7 0 32 14.3 32 32z"/></svg>
